X:1
T:Title
%%score { 1 | 2 }
L:1/8
Q:1/4=100
M:4/4
K:A
V:1 treble nm="Grand Piano"
V:2 bass 
V:1
 [CE]2 [Ec][DB] [CA]3 [EG] | BAFA E4 | A3 A [^DA][DA][DB][Dc] | [EB]6 z2 | %4
w: Mrs.~F.~E.~Hill * * * *||||
 [CE]2 [Ec][DB] [CA]3 [CA] | AABc [Fd]4 | A3 A AGcB | [CA]6 z2 | [DF]2 [Fd][Fe] [Fd]4 | %9
w: |||||
 E2 [Ec][Fd] [Ec]4 | [^DB][DB][D^A][DB] [Dc][DB][D=A][DF] | [DB]6 z2 | [CE]2 [Ec][DB] [CA]4 | %13
w: ||||
 A2 Bc [Fd]3 [Fd] |[M:17/16] c-<cBAGAc3/2B |[M:4/4] [CA]6 z2 |] %16
w: |||
V:2
 [A,,A,]2 [A,,A,][A,,A,] [A,,E,]3 [C,A,] | [D,F,D][D,F,D][D,A,D][F,A,D] [A,C]4 | %2
 [F,A,C]3 [F,A,C] [B,,A,][B,,A,][B,,A,][B,,A,] | [E,G,]6 z2 | %4
 [A,,A,]2 [A,,A,][A,,A,] [A,,E,]3 [A,,A,] | [A,C=G][A,CG][A,B,G][A,G][K:bass] [D,A,]4 | %6
 [E,A,C]3 [E,A,C] [E,B,D][E,B,D][E,G,E][E,G,D] | [A,,A,]6 z2 | [D,A,]2 [D,A,][D,A,] [D,A,]4 | %9
 [A,C]2 [A,,A,][A,,A,] [A,,A,]4 | [B,,A,][B,,A,][B,,A,][B,,A,] [B,,A,][B,,A,][B,,F,][B,,A,] | %11
 [E,G,]6 z2 | [A,,A,]2 [A,,A,][A,,A,] [A,,A,]4 | %13
 [A,CE]2[K:treble] [G,B,E][A,=G][K:bass] [D,A,]3 [D,A,] | %14
[M:17/16] [E,A,E]-<[E,A,E][E,DE][E,CE][E,B,D][E,A,C][E,A,E]3/2[E,D] |[M:4/4] [A,,A,]6 z2 |] %16

